img/gp-btn-w.svg

<svg width="135" height="40" viewBox="0 0 135 40" fill="none" xmlns="http://www.w3.org/2000/svg">
<path d="M130 0H5C2.23858 0 0 2.23858 0 5V35C0 37.7614 2.23858 40 5 40H130C132.761 40 135 37.7614 135 35V5C135 2.23858 132.761 0 130 0Z" fill="white"/>
<path d="M48.3842 23.4077H50.3977C50.0621 21.2664 48.2084 19.7749 45.7954 19.7749C42.9403 19.7749 40.799 21.8737 40.799 25.3892C40.799 28.841 42.8444 30.9823 45.854 30.9823C48.5546 30.9823 50.4882 29.2458 50.4882 26.4333V25.1229H46.0617V26.6677H48.5759C48.5439 28.2231 47.5053 29.2085 45.8646 29.2085C44.0376 29.2085 42.7858 27.8396 42.7858 25.368C42.7858 22.9123 44.0589 21.5487 45.822 21.5487C47.1377 21.5487 48.0326 22.2518 48.3842 23.4077ZM55.8829 30.993C58.2799 30.993 59.8033 29.3044 59.8033 26.7742C59.8033 24.2387 58.2799 22.5448 55.8829 22.5448C53.4859 22.5448 51.9624 24.2387 51.9624 26.7742C51.9624 29.3044 53.4859 30.993 55.8829 30.993ZM55.8935 29.4482C54.5671 29.4482 53.9173 28.2656 53.9173 26.7689C53.9173 25.2721 54.5671 24.0736 55.8935 24.0736C57.1985 24.0736 57.8484 25.2721 57.8484 26.7689C57.8484 28.2656 57.1985 29.4482 55.8935 29.4482ZM65.0089 30.993C67.4059 30.993 68.9293 29.3044 68.9293 26.7742C68.9293 24.2387 67.4059 22.5448 65.0089 22.5448C62.6118 22.5448 61.0884 24.2387 61.0884 26.7742C61.0884 29.3044 62.6118 30.993 65.0089 30.993ZM65.0194 29.4482C63.6931 29.4482 63.0433 28.2656 63.0433 26.7689C63.0433 25.2721 63.6931 24.0736 65.0194 24.0736C66.3245 24.0736 66.9744 25.2721 66.9744 26.7689C66.9744 28.2656 66.3245 29.4482 65.0194 29.4482ZM74.1241 34.0718C76.3347 34.0718 77.9647 33.0597 77.9647 30.9663V22.6513H76.063V24.0043H75.9565C75.6635 23.4131 75.051 22.5448 73.6074 22.5448C71.7164 22.5448 70.2304 24.0257 70.2304 26.7156C70.2304 29.3843 71.7164 30.716 73.6021 30.716C75.003 30.716 75.6583 29.9649 75.9565 29.363H76.0524V30.9131C76.0524 32.1169 75.2534 32.6122 74.1561 32.6122C72.9949 32.6122 72.4835 32.0636 72.2491 31.5842L70.5126 32.005C70.8642 33.1502 72.0414 34.0718 74.1241 34.0718ZM74.1401 29.2031C72.867 29.2031 72.1959 28.2124 72.1959 26.705C72.1959 25.2188 72.8564 24.1268 74.1401 24.1268C75.3813 24.1268 76.063 25.1549 76.063 26.705C76.063 28.2657 75.3706 29.2031 74.1401 29.2031ZM81.8692 19.9241H79.9409V30.8332H81.8692V19.9241ZM87.4741 30.993C89.3808 30.993 90.6916 30.0608 91.0324 28.6386L89.2316 28.4362C88.9708 29.1286 88.3316 29.4908 87.5008 29.4908C86.2541 29.4908 85.4291 28.6705 85.4124 27.2696H91.1124V26.6783C91.1124 23.8072 89.3866 22.5448 87.3733 22.5448C85.0291 22.5448 83.5008 24.2653 83.5008 26.7902C83.5008 29.3577 85.0083 30.993 87.4741 30.993ZM85.4183 25.9699C85.4766 24.9258 86.2491 24.0469 87.3999 24.0469C88.5074 24.0469 89.2533 24.8566 89.2641 25.9699H85.4183ZM96.5499 30.8332H98.5258V27.1471H100.614C103.133 27.1471 104.487 25.6343 104.487 23.5356C104.487 21.4528 103.149 19.9241 100.641 19.9241H96.5499V30.8332ZM98.5258 25.5224V21.5753H100.337C101.817 21.5753 102.473 22.3743 102.473 23.5356C102.473 24.6968 101.817 25.5224 100.347 25.5224H98.5258ZM108.046 19.9241H106.117V30.8332H108.046V19.9241ZM112.383 30.9983C113.667 30.9983 114.434 30.3964 114.786 29.7092H114.849V30.8332H116.703V25.3573C116.703 23.1947 114.94 22.5448 113.379 22.5448C111.659 22.5448 110.337 23.3118 109.912 24.8033L111.712 25.059C111.904 24.4997 112.447 24.0203 113.39 24.0203C114.285 24.0203 114.775 24.4784 114.775 25.2827V25.3147C114.775 25.8687 114.194 25.8953 112.751 26.0497C111.163 26.2202 109.645 26.6943 109.645 28.5373C109.645 30.146 110.822 30.9983 112.383 30.9983ZM112.884 29.5814C112.08 29.5814 111.504 29.2138 111.504 28.5054C111.504 27.765 112.149 27.456 113.012 27.3335C113.517 27.2642 114.53 27.1364 114.78 26.934V27.8982C114.78 28.809 114.045 29.5814 112.884 29.5814ZM119.547 33.9013C121.05 33.9013 121.918 33.129 122.382 31.8239L125.668 22.662L123.607 22.6513L121.716 28.8303H121.63L119.745 22.6513H117.699L120.667 31.0036L120.501 31.4457C120.144 32.3779 119.58 32.4418 118.738 32.1968L118.291 33.6989C118.552 33.8055 119.02 33.9013 119.547 33.9013Z" fill="#292929"/>
<path d="M44.8769 10.8333H45.6345C45.4096 9.66145 44.4271 8.85645 43.1487 8.85645C41.5951 8.85645 40.4972 10.052 40.4972 11.9696C40.4972 13.8873 41.5862 15.0828 43.196 15.0828C44.6402 15.0828 45.67 14.121 45.67 12.6207V11.9696H43.3618V12.6207H44.9598C44.939 13.7097 44.2229 14.3963 43.196 14.3963C42.0715 14.3963 41.2074 13.5439 41.2074 11.9696C41.2074 10.3953 42.0715 9.54303 43.1487 9.54303C44.0246 9.54303 44.6194 10.0372 44.8769 10.8333ZM46.9269 14.9999H50.6319V14.3489H47.6609V12.2893H50.3953V11.6382H47.6609V9.59036H50.5846V8.93936H46.9269V14.9999ZM51.576 9.59036H53.4818V14.9999H54.2157V9.59036H56.1214V8.93936H51.576V9.59036ZM60.3318 8.93936H59.5979V14.9999H60.3318V8.93936ZM61.4719 9.59036H63.3776V14.9999H64.1115V9.59036H66.0173V8.93936H61.4719V9.59036ZM74.6073 11.9696C74.6073 10.052 73.4828 8.85645 71.9321 8.85645C70.3814 8.85645 69.2569 10.052 69.2569 11.9696C69.2569 13.8873 70.3814 15.0828 71.9321 15.0828C73.4828 15.0828 74.6073 13.8873 74.6073 11.9696ZM73.8971 11.9696C73.8971 13.5439 73.033 14.3963 71.9321 14.3963C70.8313 14.3963 69.9672 13.5439 69.9672 11.9696C69.9672 10.3953 70.8313 9.54303 71.9321 9.54303C73.033 9.54303 73.8971 10.3953 73.8971 11.9696ZM80.6472 8.93936H79.9252V13.7097H79.8659L76.5516 8.93936H75.8413V14.9999H76.5753V10.2414H76.6344L79.937 14.9999H80.6472V8.93936Z" fill="#292929"/>
<path d="M21.7587 20.0019L10.0413 31.285C9.49256 30.91 9.16681 30.2862 9.17256 29.6217V10.3821C9.16681 9.7175 9.49256 9.09375 10.0413 8.71875L21.7587 20.0019Z" fill="#00D4FF"/>
<path d="M25.8586 16.0611L21.7586 20.0022L10.0411 8.71908C10.0853 8.68492 10.1313 8.65308 10.1789 8.62375C10.7981 8.24842 11.5716 8.23631 12.2024 8.592L25.8586 16.0611Z" fill="#00F076"/>
<path d="M30.8275 20.0022C30.8352 20.7525 30.4275 21.4454 29.7681 21.8033L25.8588 23.9433L21.7587 20.0022L25.8588 16.061L29.7681 18.2011C30.4275 18.559 30.8352 19.252 30.8275 20.0022Z" fill="#FFCF00"/>
<path d="M25.8586 23.943L12.2024 31.4122C11.5703 31.7624 10.7996 31.7502 10.1789 31.3804C10.1313 31.3511 10.0853 31.3193 10.0411 31.285L21.7586 20.002L25.8586 23.943Z" fill="#FB3746"/>
</svg>

<svg width="135" height="40" fill="none" xmlns="http://www.w3.org/2000/svg"><path d="M130 0H5a5 5 0 00-5 5v30a5 5 0 005 5h125a5 5 0 005-5V5a5 5 0 00-5-5z" fill="#fff"/><path d="M48.384 23.408h2.014c-.336-2.142-2.19-3.633-4.603-3.633-2.855 0-4.996 2.099-4.996 5.614 0 3.452 2.045 5.593 5.055 5.593 2.7 0 4.634-1.736 4.634-4.549v-1.31h-4.426v1.545h2.514c-.032 1.555-1.07 2.54-2.711 2.54-1.827 0-3.08-1.368-3.08-3.84 0-2.456 1.274-3.82 3.037-3.82 1.316 0 2.21.704 2.562 1.86zm7.499 7.585c2.397 0 3.92-1.689 3.92-4.219 0-2.535-1.523-4.23-3.92-4.23-2.397 0-3.92 1.695-3.92 4.23 0 2.53 1.523 4.219 3.92 4.219zm.01-1.545c-1.326 0-1.976-1.182-1.976-2.68 0-1.496.65-2.694 1.977-2.694 1.305 0 1.954 1.198 1.954 2.695 0 1.497-.65 2.68-1.954 2.68zm9.116 1.545c2.397 0 3.92-1.689 3.92-4.219 0-2.535-1.523-4.23-3.92-4.23-2.397 0-3.92 1.695-3.92 4.23 0 2.53 1.523 4.219 3.92 4.219zm.01-1.545c-1.326 0-1.976-1.182-1.976-2.68 0-1.496.65-2.694 1.976-2.694 1.305 0 1.955 1.198 1.955 2.695 0 1.497-.65 2.68-1.955 2.68zm9.105 4.624c2.21 0 3.84-1.012 3.84-3.106v-8.315h-1.901v1.353h-.106c-.293-.59-.906-1.46-2.35-1.46-1.89 0-3.377 1.482-3.377 4.172 0 2.668 1.486 4 3.372 4 1.401 0 2.056-.751 2.355-1.353h.095v1.55c0 1.204-.799 1.7-1.896 1.7-1.161 0-1.672-.55-1.907-1.029l-1.736.421c.351 1.145 1.528 2.067 3.611 2.067zm.016-4.869c-1.273 0-1.944-.99-1.944-2.498 0-1.486.66-2.578 1.944-2.578 1.241 0 1.923 1.028 1.923 2.578 0 1.56-.692 2.498-1.923 2.498zm7.73-9.279h-1.93v10.91h1.93v-10.91zm5.604 11.069c1.907 0 3.218-.932 3.558-2.354l-1.8-.203c-.261.693-.9 1.055-1.731 1.055-1.247 0-2.072-.82-2.089-2.221h5.7v-.592c0-2.87-1.725-4.133-3.739-4.133-2.344 0-3.872 1.72-3.872 4.245 0 2.568 1.507 4.203 3.973 4.203zm-2.056-5.023c.059-1.044.831-1.923 1.982-1.923 1.107 0 1.853.81 1.864 1.923h-3.846zm11.132 4.863h1.976v-3.686h2.088c2.519 0 3.873-1.513 3.873-3.611 0-2.083-1.338-3.612-3.846-3.612H96.55v10.91zm1.976-5.31v-3.948h1.811c1.48 0 2.136.8 2.136 1.96 0 1.162-.656 1.987-2.126 1.987h-1.821zm9.52-5.599h-1.929v10.91h1.929v-10.91zm4.337 11.074c1.284 0 2.051-.602 2.403-1.289h.063v1.124h1.854v-5.476c0-2.162-1.763-2.812-3.324-2.812-1.72 0-3.042.767-3.467 2.258l1.8.256c.192-.56.735-1.039 1.678-1.039.895 0 1.385.458 1.385 1.263v.032c0 .554-.581.58-2.024.735-1.588.17-3.106.644-3.106 2.487 0 1.609 1.177 2.461 2.738 2.461zm.501-1.417c-.804 0-1.38-.367-1.38-1.076 0-.74.645-1.049 1.508-1.171.505-.07 1.518-.198 1.768-.4v.964c0 .911-.735 1.683-1.896 1.683zm6.663 4.32c1.503 0 2.371-.772 2.835-2.077l3.286-9.162-2.061-.01-1.891 6.178h-.086l-1.885-6.179h-2.046l2.968 8.353-.166.442c-.357.932-.921.996-1.763.75l-.447 1.503c.261.107.729.202 1.256.202zm-74.67-23.068h.758c-.225-1.172-1.208-1.977-2.486-1.977-1.554 0-2.652 1.196-2.652 3.114 0 1.917 1.09 3.113 2.699 3.113 1.444 0 2.474-.962 2.474-2.462v-.651h-2.308v.65h1.598c-.021 1.09-.737 1.776-1.764 1.776-1.124 0-1.989-.852-1.989-2.426 0-1.575.864-2.427 1.942-2.427.876 0 1.47.494 1.728 1.29zM46.927 15h3.705v-.651H47.66v-2.06h2.734v-.65H47.66V9.59h2.924v-.65h-3.658V15zm4.649-5.41h1.906V15h.734V9.59h1.905v-.65h-4.545v.65zm8.756-.65h-.734V15h.734V8.94zm1.14.65h1.906V15h.734V9.59h1.905v-.65h-4.545v.65zm13.135 2.38c0-1.918-1.124-3.114-2.675-3.114-1.55 0-2.675 1.196-2.675 3.114 0 1.917 1.124 3.113 2.675 3.113 1.55 0 2.675-1.196 2.675-3.113zm-.71 0c0 1.574-.864 2.426-1.965 2.426-1.1 0-1.965-.852-1.965-2.426 0-1.575.864-2.427 1.965-2.427s1.965.852 1.965 2.427zm6.75-3.03h-.722v4.77h-.06l-3.313-4.77h-.71V15h.733v-4.76h.06L79.936 15h.71V8.94z" fill="#292929"/><path d="M21.759 20.002L10.04 31.285a1.994 1.994 0 01-.868-1.663v-19.24a1.994 1.994 0 01.868-1.663l11.72 11.283z" fill="#00D4FF"/><path d="M25.859 16.061l-4.1 3.941L10.04 8.72c.044-.034.09-.066.138-.095a2.004 2.004 0 012.023-.032l13.657 7.47z" fill="#00F076"/><path d="M30.828 20.002c.007.75-.4 1.443-1.06 1.801l-3.91 2.14-4.1-3.94 4.1-3.942 3.91 2.14a2.026 2.026 0 011.06 1.801z" fill="#FFCF00"/><path d="M25.859 23.943l-13.657 7.47a2.03 2.03 0 01-2.023-.033 1.55 1.55 0 01-.138-.095L21.76 20.002l4.1 3.941z" fill="#FB3746"/></svg>
